X: 1
M: 3/4
L: 1/8
K: D
|: "D"DE FG AB | A2 gf ed | "A7"cd eA Bc |1,3 "D"d2 AG FE :|2,4 "D"d4 :: "D7"d2 | "G"d2 c2 B2 |
| "G"G4 B2 | "D"B2 A2 D2 | F4 A2 | "A7"A2 G2 A,2 | C4 d2 | cd eA Bc || "D"d2 c2 B2 | "G"G4  B2 |
| "D"B2 A2 D2 | F4 A2 | "A7"A2 G2 A,2 | C4 d2 | cd eA Bc | "D"d4 :: f2 | "D"a2 fd fa |
| "D"a2 fd fa | a2 g2 f2 | "Em"g4 g2 | "A7"g2 ec eg | g2 ec eg | g2 f2 e2 | "D"f4 a2 || a2 fd fa |
| "D"a2 fd fa | a2 gf ga | "G"b4 g2 | "D"f3 g a2 | "Em"e3 f g2 | "A7"A2 B2 c2 | ed cd fe | "D"d4 :|
